img/icons/parnters/spg.svg

<svg width="165" height="119" viewBox="0 0 165 119" fill="none" xmlns="http://www.w3.org/2000/svg">
<path d="M133.343 95.4142C124.036 95.4485 114.261 92.2852 109.267 88.9758C101.862 91.719 94.6194 98.8353 80.7189 105.691C69.8127 111.068 55.6136 115.455 32.9908 113.834C21.8539 113.04 9.52079 109.28 0.983277 106.808L0 108.12C13.0709 113.673 30.0587 117.511 48.7632 118.535C99.7162 121.32 127.635 111.427 151.173 93.4325C146.464 94.5053 140.486 95.3904 133.343 95.4142Z" fill="#FBBA00"/>
<path d="M55.7639 35.1661C53.4898 33.8117 51.4256 33.2559 48.4906 32.6077C45.1223 31.8657 42.5125 31.9298 39.6721 31.9238C33.6512 32.0162 28.5086 33.6567 24.1777 36.5801C19.8469 39.505 17.1676 43.2882 16.1474 47.9311C15.5944 51.3284 16.174 54.0864 17.8759 56.2037C19.5807 58.321 21.6833 60.1195 24.1851 61.6005C26.6825 63.0786 28.8472 64.5582 30.6762 66.0423C32.5053 67.5249 33.2683 69.3248 32.9666 71.4511C32.5896 73.2123 31.5501 74.6084 29.8527 75.6455C28.1552 76.6795 26.0275 77.2145 23.4695 77.2353C20.9573 77.2025 18.2943 76.6915 15.482 75.6932C12.6697 74.6948 10.9811 73.9528 8.85636 72.3779L4.40869 81.0095C6.67688 82.5666 9.33099 83.7869 12.3695 84.6661C15.4096 85.5496 19.0218 86.0011 23.2122 86.0145C27.5712 85.9743 31.3534 85.2084 34.5665 83.7214C37.7736 82.2373 40.3523 80.2779 42.2952 77.8537C44.2381 75.4235 45.4905 72.7757 46.0538 69.9059C46.6497 66.2762 46.1056 63.3468 44.4214 61.1193C42.7388 58.8857 40.6436 57.0381 38.1447 55.5734C35.6444 54.1057 33.4634 52.7066 31.6048 51.3731C29.7477 50.038 28.9404 48.4511 29.1873 46.6139C29.5895 44.8557 30.6629 43.4581 32.4062 42.4225C34.151 41.3855 36.1501 40.7239 38.4744 40.7015C40.7737 40.7388 42.8334 40.925 45.7758 41.609C48.4566 42.2303 48.563 42.2541 50.4423 43.2644L55.7639 35.1661Z" fill="#9D9D9C"/>
<path d="M160.617 32.1302C159.508 32.081 158.353 32.0557 157.185 32.0557C147.537 32.1823 139.503 33.8109 133.077 36.9429C126.649 40.0735 121.7 43.9416 118.221 48.5442C114.746 53.1499 112.611 57.7272 111.814 62.2733C111.045 66.1846 111.341 69.9394 112.697 73.5363C114.053 77.1332 116.804 80.0954 120.953 82.4154C125.105 84.7398 130.983 86.045 138.595 86.0182C149.173 85.981 155.491 82.8147 156.64 82.5301L165 57.6527H143.124L140.365 65.973H150.496L147.465 75.1292C145.816 75.5061 144.25 75.8682 142.992 76.0455C141.729 76.2258 140.391 76.3197 138.936 76.3122C133.877 76.3197 129.936 75.1292 127.1 72.7451C124.266 70.3581 123.244 66.7418 124.027 61.8888C124.816 57.8554 126.658 54.3329 129.55 51.3261C132.436 48.3177 136.106 45.9799 140.55 44.3081C144.993 42.6363 149.939 41.79 155.386 41.7631C155.945 41.7602 156.508 41.7661 157.057 41.781L160.617 32.1302Z" fill="#9D9D9C"/>
<path d="M97.578 33.1269C101.532 34.1595 104.502 36.0101 106.685 39.677C107.962 41.9955 108.126 45.5269 107.488 49.021C106.559 53.3822 104.428 57.9372 101.856 60.439C99.2828 62.9422 96.299 64.7109 92.8982 65.7494C89.5063 66.785 86.1084 67.2901 82.712 67.2573H71.1522L64.7543 85.3208H52.3916L64.9302 49.4471L77.3151 49.456L74.1967 58.4945H81.1521C85.2272 58.4334 88.3456 57.6109 90.5028 56.0255C92.6601 54.4402 94.1772 51.7522 94.6149 49.3756C95.0747 47.1272 94.8795 44.6448 92.8184 43.3768C89.2815 41.1984 79.3467 41.3384 70.9438 43.9653L68.1728 34.307C79.6853 31.3881 91.5438 31.5475 97.578 33.1269Z" fill="#9D9D9C"/>
<path d="M114.829 0.465948C62.7405 -2.38297 34.7208 8.00992 10.8516 26.7752L11.1029 26.8169C26.6979 21.3083 40.0793 19.8139 53.3602 21.809C57.5461 22.4363 60.8065 23.3825 63.9988 24.6519C68.9285 21.3918 74.7675 17.3076 82.8733 13.3114C93.7795 7.93393 107.979 3.54433 130.601 5.16696C141.735 5.96412 154.071 9.71897 162.61 12.1939L163.591 10.8827C150.521 5.32788 133.534 1.4881 114.829 0.465948Z" fill="black"/>
</svg>

<svg width="165" height="119" fill="none" xmlns="http://www.w3.org/2000/svg"><path d="M133.343 95.414c-9.307.034-19.082-3.129-24.076-6.438-7.405 2.743-14.648 9.86-28.548 16.715-10.906 5.377-25.105 9.764-47.728 8.143-11.137-.794-23.47-4.554-32.008-7.026L0 108.12c13.07 5.553 30.059 9.391 48.763 10.415 50.953 2.785 78.872-7.108 102.41-25.102-4.709 1.072-10.687 1.957-17.83 1.981z" fill="#FBBA00"/><path d="M55.764 35.166c-2.274-1.354-4.338-1.91-7.273-2.558-3.369-.742-5.978-.678-8.819-.684-6.02.092-11.163 1.733-15.494 4.656-4.331 2.925-7.01 6.708-8.03 11.351-.554 3.397.026 6.155 1.728 8.273 1.705 2.117 3.807 3.916 6.31 5.396 2.497 1.479 4.661 2.958 6.49 4.442 1.83 1.483 2.592 3.283 2.29 5.41-.376 1.76-1.416 3.156-3.113 4.194-1.698 1.034-3.826 1.569-6.384 1.59-2.512-.034-5.175-.544-7.987-1.543-2.812-.998-4.5-1.74-6.626-3.315L4.41 81.01c2.268 1.557 4.922 2.777 7.96 3.656 3.04.884 6.653 1.335 10.843 1.349 4.36-.04 8.141-.807 11.354-2.294 3.208-1.484 5.786-3.443 7.73-5.867 1.942-2.43 3.194-5.078 3.758-7.948.596-3.63.052-6.56-1.633-8.787-1.682-2.233-3.777-4.08-6.276-5.546-2.5-1.467-4.682-2.866-6.54-4.2-1.857-1.335-2.665-2.922-2.418-4.76.402-1.757 1.476-3.155 3.22-4.19 1.744-1.038 3.743-1.7 6.067-1.721 2.3.037 4.36.223 7.302.907 2.68.621 2.787.645 4.666 1.655l5.322-8.098zm104.853-3.036a77.828 77.828 0 0 0-3.432-.074c-9.648.126-17.682 1.755-24.108 4.887-6.428 3.13-11.377 6.999-14.856 11.601-3.475 4.606-5.61 9.183-6.407 13.73-.769 3.91-.473 7.665.883 11.262 1.356 3.597 4.107 6.56 8.256 8.88 4.152 2.324 10.03 3.629 17.642 3.602 10.578-.037 16.896-3.203 18.045-3.488L165 57.653h-21.876l-2.759 8.32h10.131l-3.031 9.156c-1.649.377-3.215.74-4.473.916-1.263.18-2.601.275-4.056.267-5.059.008-9-1.183-11.836-3.567-2.834-2.387-3.856-6.003-3.073-10.856.789-4.034 2.631-7.556 5.523-10.563 2.886-3.008 6.556-5.346 11-7.018 4.443-1.672 9.389-2.518 14.836-2.545.559-.003 1.122.003 1.671.018l3.56-9.65zm-63.039.997c3.954 1.032 6.924 2.883 9.107 6.55 1.277 2.319 1.441 5.85.803 9.344-.929 4.361-3.06 8.916-5.632 11.418-2.573 2.503-5.557 4.272-8.958 5.31-3.392 1.036-6.79 1.541-10.186 1.508h-11.56l-6.398 18.064H52.392L64.93 49.447l12.385.009-3.118 9.038h6.955c4.075-.06 7.194-.883 9.35-2.468 2.158-1.586 3.675-4.274 4.113-6.65.46-2.249.264-4.731-1.797-6-3.537-2.178-13.471-2.038-21.874.59l-2.771-9.659c11.512-2.919 23.37-2.76 29.405-1.18z" fill="#9D9D9C"/><path d="M114.829.466C62.741-2.383 34.721 8.01 10.852 26.776l.25.04c15.596-5.508 28.977-7.002 42.258-5.007 4.186.627 7.447 1.573 10.639 2.843 4.93-3.26 10.768-7.344 18.874-11.34 10.906-5.378 25.106-9.768 47.728-8.145 11.134.797 23.47 4.552 32.009 7.027l.981-1.311c-13.07-5.555-30.057-9.395-48.762-10.417z" fill="#000"/></svg>
